X:1
T:Willie (Sinful to Flirt)
M:4/4
L:1/8
K:F
 CC| F2 FF A2 GF| D6 GG| E2 ED C2D-E| F6| CC| F2 FF F2 GA| B6 Bd| c2 AF C2 EG|\
 F6||

